src/lib/packages/icons/src/assets/line/disc.svg

<svg xmlns="http://www.w3.org/2000/svg" width="24" height="24" fill="none"><path fill="currentColor" d="M12 16.25A4.255 4.255 0 0 1 7.75 12 4.255 4.255 0 0 1 12 7.75 4.255 4.255 0 0 1 16.25 12 4.255 4.255 0 0 1 12 16.25Zm0-7A2.752 2.752 0 0 0 9.25 12 2.752 2.752 0 0 0 12 14.75 2.752 2.752 0 0 0 14.75 12 2.752 2.752 0 0 0 12 9.25Zm0 12.5c-5.376 0-9.75-4.374-9.75-9.75S6.624 2.25 12 2.25s9.75 4.374 9.75 9.75-4.374 9.75-9.75 9.75Zm0-18c-4.549 0-8.25 3.701-8.25 8.25 0 4.549 3.701 8.25 8.25 8.25 4.549 0 8.25-3.701 8.25-8.25 0-4.549-3.701-8.25-8.25-8.25ZM12 11a1 1 0 1 0 0 2 1 1 0 0 0 0-2Z"/></svg>

<svg width="24" height="24" viewBox="0 0 24 24" fill="none" xmlns="http://www.w3.org/2000/svg">
<path d="M12 16.25C9.656 16.25 7.75 14.343 7.75 12C7.75 9.657 9.656 7.75 12 7.75C14.344 7.75 16.25 9.657 16.25 12C16.25 14.343 14.344 16.25 12 16.25ZM12 9.25C10.483 9.25 9.25 10.483 9.25 12C9.25 13.517 10.483 14.75 12 14.75C13.517 14.75 14.75 13.517 14.75 12C14.75 10.483 13.517 9.25 12 9.25ZM12 21.75C6.624 21.75 2.25 17.376 2.25 12C2.25 6.624 6.624 2.25 12 2.25C17.376 2.25 21.75 6.624 21.75 12C21.75 17.376 17.376 21.75 12 21.75ZM12 3.75C7.451 3.75 3.75 7.451 3.75 12C3.75 16.549 7.451 20.25 12 20.25C16.549 20.25 20.25 16.549 20.25 12C20.25 7.451 16.549 3.75 12 3.75ZM12 11C11.448 11 11 11.448 11 12C11 12.552 11.448 13 12 13C12.552 13 13 12.552 13 12C13 11.448 12.552 11 12 11Z" fill="currentColor"/>
</svg>
